src/assets/images/upload.svg

<svg fill="none" height="20" viewBox="0 0 18 20" width="18" xmlns="http://www.w3.org/2000/svg"><path d="m13 0 5 5v14.008c-.0003.2632-.105.5155-.2912.7015s-.4386.2905-.7018.2905h-16.014c-.262622-.0018-.513983-.1069-.699782-.2925-.1858-.1856-.29112335-.4369-.293218-.6995v-18.016c0-.548.445-.992.993-.992zm-3 10h3l-4-4-4 4h3v4h2z" fill="#000"/></svg>

<svg width="18" height="20" viewBox="0 0 18 20" fill="none" xmlns="http://www.w3.org/2000/svg">
<path d="M13 0L18 5V19.008C17.9997 19.2712 17.895 19.5235 17.7088 19.7095C17.5226 19.8955 17.2702 20 17.007 20H0.993C0.730378 19.9982 0.479017 19.8931 0.293218 19.7075C0.107418 19.5219 0.00209465 19.2706 0 19.008V0.992C0 0.444 0.445 0 0.993 0H13ZM10 10H13L9 6L5 10H8V14H10V10Z" fill="black"/>
</svg>
